public/assets/images/icons/grey/remove/question-circle.svg

<svg width="16" height="16" xmlns="http://www.w3.org/2000/svg" viewBox="0 0 16 16" shape-rendering="geometricPrecision" fill="#6e6e6e"><defs><mask id="a"><rect fill="#fff" width="100%" height="100%"/><path fill="#000" d="M8.986 1.143H17v3.565H8.986z"/></mask></defs><path d="M9.986 2.143H16v1.565H9.986z" fill="#cb1800"/><g mask="url(#a)"><path d="M7.999.97a7.03 7.03 0 0 0 0 14.06 7.03 7.03 0 1 0 0-14.06zm0 12.638a5.616 5.616 0 0 1-5.607-5.605 5.616 5.616 0 0 1 5.607-5.611 5.617 5.617 0 0 1 5.609 5.611 5.615 5.615 0 0 1-5.609 5.605zm-.082-3.4c-.662 0-1.132.471-1.132 1.156 0 .664.458 1.16 1.121 1.16h.012c.688 0 1.147-.496 1.147-1.16-.011-.685-.459-1.156-1.148-1.156zm.18-6.563c-.904 0-1.656.256-2.127.523l.434 1.387c.33-.229.839-.381 1.262-.381.637.025.93.318.93.764 0 .434-.333.842-.741 1.338-.574.676-.788 1.338-.75 1.988l.012.332h1.694v-.228c-.013-.574.178-1.074.649-1.594.486-.537 1.083-1.174 1.083-2.143 0-1.056-.765-1.986-2.446-1.986z"/></g></svg>

<?xml version="1.0"?><!DOCTYPE svg PUBLIC "-//W3C//DTD SVG 1.1//EN" "http://www.w3.org/Graphics/SVG/1.1/DTD/svg11.dtd"><svg width="16px" height="16px" xmlns="http://www.w3.org/2000/svg" viewBox="0 0 16 16" shape-rendering="geometricPrecision" fill="#6e6e6e"><defs><mask id="remove-path"><rect fill="#fff" width="100%" height="100%"/><rect x="8.986" y="1.143" width="8.014" height="3.565" fill="#000"/></mask></defs><g fill="#cb1800"><rect x="9.986" y="2.143" width="6.014" height="1.565"/></g><g mask="url(#remove-path)"><path d="M7.999,0.97c-3.882,0-7.029,3.147-7.029,7.033c0.001,3.881,3.147,7.025,7.029,7.027 c3.883-0.002,7.031-3.146,7.031-7.027C15.03,4.116,11.882,0.97,7.999,0.97z M7.999,13.608c-3.096-0.006-5.601-2.512-5.607-5.605 c0.006-3.1,2.511-5.606,5.607-5.611c3.098,0.006,5.603,2.512,5.609,5.611C13.602,11.097,11.097,13.603,7.999,13.608z M7.917,10.208c-0.662,0-1.132,0.471-1.132,1.156c0,0.664,0.458,1.16,1.121,1.16h0.012c0.688,0,1.147-0.496,1.147-1.16 C9.054,10.679,8.606,10.208,7.917,10.208z M8.097,3.645c-0.904,0-1.656,0.256-2.127,0.523l0.434,1.387 c0.33-0.229,0.839-0.381,1.262-0.381c0.637,0.025,0.93,0.318,0.93,0.764c0,0.434-0.333,0.842-0.741,1.338 c-0.574,0.676-0.788,1.338-0.75,1.988l0.012,0.332h1.694V9.368C8.798,8.794,8.989,8.294,9.46,7.774 c0.486-0.537,1.083-1.174,1.083-2.143C10.543,4.575,9.778,3.645,8.097,3.645z"/></g></svg>
